X:1120
L:1/8
Q:1/2=96
M:4/4
K:D
 z A | dAFA DFAd | fdAd FA (3(def) | gfge fdfd | edcB ABce | dAFA DFAd | fdAd FA (3(def) | 
 gfge face | d2 d2 d2 || AG | FAdA FAdA | GBdB GBdB | Acec Acec | dfaf gecA | FAdA FAdA | 
 GBdB GBdB | Aceg face | d2 d2 d2 |]

